_inc/images/systems/logos/megadrive.svg

<svg viewBox="0 0 3840 696.7" xmlns="http://www.w3.org/2000/svg">
    <path class="st1" style="fill:#fff" d="M0 537.9h95.7v158.8H0zm210.6 0h95.7v158.8h-95.7zm210.5 0h95.7v158.8h-95.7zm980.4 0h95.7v158.8h-95.7zm1505.8 0h95.7v158.8h-95.7zm-445 0h95.7v158.8h-95.7zm419.6 158.8h-125.6l-47.5-47.5 57.9-67.7zm-877.3-158.8h95.7v158.8h-95.7zm-317.2 0h95.7v158.8h-95.7zM514.5 523.6H0V469h459.9c30.2 0 54.6 24.5 54.6 54.6Zm55.6-54.6h341.4v54.6H570.1zm95.7 158.9v-14.2h226.3v-54.6H680c-7.8 0-14.2-6.4-14.2-14.2v-7h-95.7v92.2c0 36.8 29.8 66.6 66.6 66.6h274.8v-54.6H680c-7.8 0-14.2-6.4-14.2-14.2ZM3498.6 469H3840v54.6h-341.4zm95.7 158.9v-14.2h226.3v-54.6h-212.1c-7.8 0-14.2-6.4-14.2-14.2v-7h-95.7v92.2c0 36.8 29.8 66.6 66.6 66.6H3840v-54.6h-231.5c-7.8 0-14.2-6.4-14.2-14.2ZM1336.7 523.6H957.4c0-30.2 24.5-54.6 54.6-54.6h324.7v54.6Zm-210.8 35.5v54.6h119.8c7.8 0 14.2 6.4 14.2 14.2 0 7.8-6.4 14.2-14.2 14.2h-178.4c-7.8 0-14.2-6.4-14.2-14.2v-90h-95.7v92.2c0 36.8 29.8 66.6 66.6 66.6h262.9c38 0 68.8-30.8 68.8-68.8s-30.8-68.8-68.8-68.8h-161Zm1181.2-21.2v90c0 7.8-6.4 14.2-14.2 14.2h-178.3v54.6h221.7c36.8 0 66.6-29.8 66.6-66.6v-92.2h-95.8Zm-524-14.3h-381.6c0-30.2 24.5-54.6 54.6-54.6h272.4c30.2 0 54.6 24.5 54.6 54.6Zm619.7 0h-398.3V469h343.7c30.2 0 54.6 24.5 54.6 54.6Zm504.5-54.6h95.7v54.6h-95.7z"/>
    <path class="st1" style="fill:#fff" d="M1511.5 586.4h244v64.5h-244zm950.7-62.8H2748v48.5c0 7.8-6.4 14.2-14.2 14.2h-161.6v64.5h199.2c43.8 0 79.6-35.8 79.6-79.6v-22.8c0-43.9-35.6-79.6-79.6-79.6h-254.6c-30.1.2-54.6 24.7-54.6 54.8Zm965.2 0 35.1-54.6h-113.8l-35.1 54.6zm-244.1 0-35.2-54.6h-113.8l35.1 54.6zm121.1 14.3-56 87-55.9-87h-113.9l102.2 158.8h135.3l102.1-158.8zM1461.7 262.5h-164.9v51.4h164.9c31.7 0 58-26.4 58-58s-26.4-58-58-58h-42.2c-38.2 0-69.9-31.7-69.9-69.9s31.7-69.9 69.9-69.9H1583V6.6h-164.9c-67.3 0-121.3 54.1-121.3 121.3 0 67.2 54.1 121.3 121.3 121.3h42.2c4 0 6.6 2.6 6.6 6.6.1 4-2.6 6.7-5.2 6.7Z"/>
    <path class="st1" d="M1418.2 122.7H1583V69.9h-164.9c-31.7 0-58 26.4-58 58s26.4 58 58 58h42.2c38.2 0 69.9 31.7 69.9 69.9s-31.7 69.9-69.9 69.9h-163.5v51.4h164.9c67.3 0 121.3-54.1 121.3-121.3 0-67.2-54.1-121.3-121.3-121.3h-42.2c-4 0-6.6-2.6-6.6-6.6 0-2.6 2.6-5.2 5.3-5.2Zm592.1-52.8c-22.4 0-39.6 17.1-39.6 39.6v164.9c0 22.4 17.1 39.6 39.6 39.6h106.8V197.8h-81.8v51.4h30.3v11.9h-30.3c-6.6 0-11.9-5.3-11.9-11.9v-116c0-6.6 5.3-11.9 11.9-11.9h146.4V69.9h-171.4Zm324.5 244h120L2373 71.2c-2.6-6.6-7.9-11.9-15.8-11.9-6.6 0-13.2 5.3-15.8 10.6l-105.5 307.3h60.7l36.9-109.5v46.2h1.3Zm21.1-110.8 17.1 52.8h-35.6l18.5-52.8Z" style="fill:#fff"/>
    <path class="st1" d="M2436.3 60.7C2425.8 26.4 2394.1 0 2355.9 0s-69.9 25.1-79.1 59.4l-96.3 282.2V134.5h-145.1V186h95v139.8h-118.7c-29 0-51.4-23.7-51.4-51.4V109.5c0-29 23.7-51.4 51.4-51.4h170.1V6.6h-171.5c-56.7 0-102.9 46.2-102.9 102.9v164.9c0 56.7 46.2 102.9 102.9 102.9h212.3l106.8-309.9c4-11.9 14.5-19.8 27.7-19.8s23.7 7.9 27.7 19.8l87 258.5h-137.2v51.4H2543L2436.3 60.7ZM1711 325.8c-29 0-51.4-23.7-51.4-51.4V109.5c0-29 23.7-51.4 51.4-51.4h176.7V6.6H1711c-56.7 0-102.9 46.2-102.9 102.9v164.9c0 56.7 46.2 102.9 102.9 102.9h176.7v-51.4H1711Z" style="fill:#fff"/>
    <path class="st1" d="M1722.8 250.6h127.9v-51.4h-179.4v76.5c0 22.4 17.1 39.6 39.6 39.6h176.7v-51.4h-153c-6.5-1.4-11.8-6.7-11.8-13.3Zm128-116.1h-127.9c0-6.6 5.3-11.9 11.9-11.9h151.7V69.9H1711c-22.4 0-39.6 17.1-39.6 39.6V186h179.4v-51.5Z" style="fill:#fff"/>
</svg>

<?xml version="1.0" encoding="utf-8"?>
<svg version="1.1" viewBox="0 0 3840 696.7" xmlns="http://www.w3.org/2000/svg">
  <rect y="537.9" class="st1" width="95.7" height="158.8" style="fill: rgb(255, 255, 255);"/>
  <rect x="210.6" y="537.9" class="st1" width="95.7" height="158.8" style="fill: rgb(255, 255, 255);"/>
  <rect x="421.1" y="537.9" class="st1" width="95.7" height="158.8" style="fill: rgb(255, 255, 255);"/>
  <rect x="1401.5" y="537.9" class="st1" width="95.7" height="158.8" style="fill: rgb(255, 255, 255);"/>
  <rect x="2907.3" y="537.9" class="st1" width="95.7" height="158.8" style="fill: rgb(255, 255, 255);"/>
  <rect x="2462.3" y="537.9" class="st1" width="95.7" height="158.8" style="fill: rgb(255, 255, 255);"/>
  <polygon class="st1" points="2881.9 696.7 2756.3 696.7 2708.8 649.2 2766.7 581.5" style="fill: rgb(255, 255, 255);"/>
  <rect x="2004.6" y="537.9" class="st1" width="95.7" height="158.8" style="fill: rgb(255, 255, 255);"/>
  <rect x="1687.4" y="537.9" class="st1" width="95.7" height="158.8" style="fill: rgb(255, 255, 255);"/>
  <path class="st1" d="M 514.5 523.6 L 0 523.6 L 0 469 L 459.9 469 C 490.1 469 514.5 493.5 514.5 523.6 L 514.5 523.6 Z" style="fill: rgb(255, 255, 255);"/>
  <rect x="570.1" y="469" class="st1" width="341.4" height="54.6" style="fill: rgb(255, 255, 255);"/>
  <path class="st1" d="M 665.8 627.9 L 665.8 613.7 L 892.1 613.7 L 892.1 559.1 L 680 559.1 C 672.2 559.1 665.8 552.7 665.8 544.9 L 665.8 537.9 L 570.1 537.9 L 570.1 559.1 L 570.1 613.7 L 570.1 630.1 C 570.1 666.9 599.9 696.7 636.7 696.7 L 911.5 696.7 L 911.5 642.1 L 680 642.1 C 672.2 642.1 665.8 635.7 665.8 627.9 Z" style="fill: rgb(255, 255, 255);"/>
  <rect x="3498.6" y="469" class="st1" width="341.4" height="54.6" style="fill: rgb(255, 255, 255);"/>
  <path class="st1" d="M 3594.3 627.9 L 3594.3 613.7 L 3820.6 613.7 L 3820.6 559.1 L 3608.5 559.1 C 3600.7 559.1 3594.3 552.7 3594.3 544.9 L 3594.3 537.9 L 3498.6 537.9 L 3498.6 559.1 L 3498.6 613.7 L 3498.6 630.1 C 3498.6 666.9 3528.4 696.7 3565.2 696.7 L 3840 696.7 L 3840 642.1 L 3608.5 642.1 C 3600.7 642.1 3594.3 635.7 3594.3 627.9 Z" style="fill: rgb(255, 255, 255);"/>
  <path class="st1" d="M 1336.7 523.6 L 957.4 523.6 L 957.4 523.6 C 957.4 493.4 981.9 469 1012 469 L 1336.7 469 L 1336.7 523.6 Z" style="fill: rgb(255, 255, 255);"/>
  <path class="st1" d="M 1125.9 559.1 L 1125.9 613.7 L 1245.7 613.7 C 1253.5 613.7 1259.9 620.1 1259.9 627.9 L 1259.9 627.9 C 1259.9 635.7 1253.5 642.1 1245.7 642.1 L 1067.3 642.1 C 1059.5 642.1 1053.1 635.7 1053.1 627.9 L 1053.1 537.9 L 957.4 537.9 L 957.4 630.1 C 957.4 666.9 987.2 696.7 1024 696.7 L 1053.2 696.7 L 1286.9 696.7 C 1324.9 696.7 1355.7 665.9 1355.7 627.9 L 1355.7 627.9 C 1355.7 589.9 1324.9 559.1 1286.9 559.1 L 1125.9 559.1 Z" style="fill: rgb(255, 255, 255);"/>
  <path class="st1" d="M 2307.1 537.9 L 2307.1 627.9 C 2307.1 635.7 2300.7 642.1 2292.9 642.1 L 2114.6 642.1 L 2114.6 696.7 L 2336.3 696.7 C 2373.1 696.7 2402.9 666.9 2402.9 630.1 L 2402.9 537.9 L 2307.1 537.9 Z" style="fill: rgb(255, 255, 255);"/>
  <path class="st1" d="M 1783.1 523.6 L 1401.5 523.6 L 1401.5 523.6 C 1401.5 493.4 1426 469 1456.1 469 L 1728.5 469 C 1758.7 469 1783.1 493.5 1783.1 523.6 L 1783.1 523.6 Z" style="fill: rgb(255, 255, 255);"/>
  <path class="st1" d="M 2402.8 523.6 L 2004.5 523.6 L 2004.5 469 L 2348.2 469 C 2378.4 469 2402.8 493.5 2402.8 523.6 L 2402.8 523.6 Z" style="fill: rgb(255, 255, 255);"/>
  <rect x="2907.3" y="469" class="st1" width="95.7" height="54.6" style="fill: rgb(255, 255, 255);"/>
  <rect x="1511.5" y="586.4" class="st1" width="244" height="64.5" style="fill: rgb(255, 255, 255);"/>
  <path class="st1" d="M 2462.2 523.6 L 2462.2 523.6 L 2748 523.6 L 2748 572.1 C 2748 579.9 2741.6 586.3 2733.8 586.3 L 2572.2 586.3 L 2572.2 650.8 L 2771.4 650.8 C 2815.2 650.8 2851 615 2851 571.2 L 2851 548.4 C 2851 504.5 2815.4 468.8 2771.4 468.8 L 2516.8 468.8 C 2486.7 469 2462.2 493.5 2462.2 523.6 Z" style="fill: rgb(255, 255, 255);"/>
  <polygon class="st1" points="3427.4 523.6 3462.5 469 3348.7 469 3313.6 523.6" style="fill: rgb(255, 255, 255);"/>
  <polygon class="st1" points="3183.3 523.6 3148.1 469 3034.3 469 3069.4 523.6" style="fill: rgb(255, 255, 255);"/>
  <polygon class="st1" points="3304.4 537.9 3248.4 624.9 3192.5 537.9 3078.6 537.9 3180.8 696.7 3316.1 696.7 3418.2 537.9" style="fill: rgb(255, 255, 255);"/>
  <path class="st1" d="M 1461.7 262.5 L 1296.8 262.5 L 1296.8 313.9 L 1461.7 313.9 C 1493.4 313.9 1519.7 287.5 1519.7 255.9 C 1519.7 224.3 1493.3 197.9 1461.7 197.9 L 1419.5 197.9 C 1381.3 197.9 1349.6 166.2 1349.6 128 C 1349.6 89.8 1381.3 58.1 1419.5 58.1 L 1583 58.1 L 1583 6.6 L 1418.1 6.6 C 1350.8 6.6 1296.8 60.7 1296.8 127.9 C 1296.8 195.1 1350.9 249.2 1418.1 249.2 L 1460.3 249.2 C 1464.3 249.2 1466.9 251.8 1466.9 255.8 C 1467 259.8 1464.3 262.5 1461.7 262.5 Z" style="fill: rgb(255, 255, 255);"/>
  <path class="st1" d="M 1418.2 122.7 L 1583 122.7 L 1583 69.9 L 1418.1 69.9 C 1386.4 69.9 1360.1 96.3 1360.1 127.9 C 1360.1 159.5 1386.5 185.9 1418.1 185.9 L 1460.3 185.9 C 1498.5 185.9 1530.2 217.6 1530.2 255.8 C 1530.2 294 1498.5 325.7 1460.3 325.7 L 1296.8 325.7 L 1296.8 377.1 L 1461.7 377.1 C 1529 377.1 1583 323 1583 255.8 C 1583 188.6 1528.9 134.5 1461.7 134.5 L 1419.5 134.5 C 1415.5 134.5 1412.9 131.9 1412.9 127.9 C 1412.9 125.3 1415.5 122.7 1418.2 122.7 Z" style="fill: rgb(255, 255, 255);"/>
  <path class="st1" d="M 2010.3 69.9 C 1987.9 69.9 1970.7 87 1970.7 109.5 L 1970.7 274.4 C 1970.7 296.8 1987.8 314 2010.3 314 L 2117.1 314 L 2117.1 197.8 L 2035.3 197.8 L 2035.3 249.2 L 2065.6 249.2 L 2065.6 261.1 L 2035.3 261.1 C 2028.7 261.1 2023.4 255.8 2023.4 249.2 L 2023.4 133.2 C 2023.4 126.6 2028.7 121.3 2035.3 121.3 L 2181.7 121.3 L 2181.7 69.9 L 2010.3 69.9 Z" style="fill: rgb(255, 255, 255);"/>
  <path class="st1" d="M 2334.8 313.9 L 2454.8 313.9 L 2373 71.2 C 2370.4 64.6 2365.1 59.3 2357.2 59.3 C 2350.6 59.3 2344 64.6 2341.4 69.9 L 2235.9 377.2 L 2296.6 377.2 L 2333.5 267.7 L 2333.5 313.9 L 2334.8 313.9 Z M 2355.9 203.1 L 2373 255.9 L 2337.4 255.9 L 2355.9 203.1 Z" style="fill: rgb(255, 255, 255);"/>
  <path class="st1" d="M 2436.3 60.7 C 2425.8 26.4 2394.1 0 2355.9 0 C 2317.7 0 2286 25.1 2276.8 59.4 L 2180.5 341.6 L 2180.5 134.5 L 2035.4 134.5 L 2035.4 186 L 2130.4 186 L 2130.4 325.8 L 2011.7 325.8 C 1982.7 325.8 1960.3 302.1 1960.3 274.4 L 1960.3 109.5 C 1960.3 80.5 1984 58.1 2011.7 58.1 L 2181.8 58.1 L 2181.8 6.6 L 2010.3 6.6 C 1953.6 6.6 1907.4 52.8 1907.4 109.5 L 1907.4 274.4 C 1907.4 331.1 1953.6 377.3 2010.3 377.3 L 2222.6 377.3 L 2329.4 67.4 C 2333.4 55.5 2343.9 47.6 2357.1 47.6 C 2370.3 47.6 2380.8 55.5 2384.8 67.4 L 2471.8 325.9 L 2334.6 325.9 L 2334.6 377.3 L 2543 377.3 L 2543 377.3 L 2436.3 60.7 Z" style="fill: rgb(255, 255, 255);"/>
  <path class="st1" d="M 1711 325.8 C 1682 325.8 1659.6 302.1 1659.6 274.4 L 1659.6 109.5 C 1659.6 80.5 1683.3 58.1 1711 58.1 L 1887.7 58.1 L 1887.7 6.6 L 1711 6.6 C 1654.3 6.6 1608.1 52.8 1608.1 109.5 L 1608.1 274.4 C 1608.1 331.1 1654.3 377.3 1711 377.3 L 1887.7 377.3 L 1887.7 325.9 L 1711 325.9 Z" style="fill: rgb(255, 255, 255);"/>
  <path class="st1" d="M 1722.8 250.6 L 1850.7 250.6 L 1850.7 199.2 L 1671.3 199.2 L 1671.3 275.7 C 1671.3 298.1 1688.4 315.3 1710.9 315.3 L 1887.6 315.3 L 1887.6 263.9 L 1734.6 263.9 C 1728.1 262.5 1722.8 257.2 1722.8 250.6 Z" style="fill: rgb(255, 255, 255);"/>
  <path class="st1" d="M 1850.8 134.5 L 1722.9 134.5 C 1722.9 127.9 1728.2 122.6 1734.8 122.6 L 1886.5 122.6 L 1886.5 69.9 L 1711 69.9 C 1688.6 69.9 1671.4 87 1671.4 109.5 L 1671.4 186 L 1850.8 186 L 1850.8 134.5 Z" style="fill: rgb(255, 255, 255);"/>
</svg>
